svg/set/5ED/U.svg

<?xml version="1.0" encoding="UTF-8" standalone="no"?>
<svg xmlns="http://www.w3.org/2000/svg" xmlns:xlink="http://www.w3.org/1999/xlink" version="1.1" width="600" height="517.92493">
  <radialGradient cx="0" cy="0" r="1" fx="0" fy="0" id="radialGradient586" gradientUnits="userSpaceOnUse" gradientTransform="matrix(19.172806,0,0,-19.172806,218.38379,259.30273)" spreadMethod="pad">
    <stop style="stop-color:#d9eaf3" offset="0"/>
    <stop style="stop-color:#99aebc" offset="0.7"/>
    <stop style="stop-color:#536e78" offset="1"/>
  </radialGradient>
  <radialGradient cx="0" cy="0" r="1" fx="0" fy="0" id="radialGradient2995" xlink:href="#radialGradient586" gradientUnits="userSpaceOnUse" gradientTransform="matrix(19.172806,0,0,-19.172806,218.38379,259.30273)" spreadMethod="pad"/>
  <radialGradient cx="0" cy="0" r="1" fx="0" fy="0" id="radialGradient2998" xlink:href="#radialGradient586" gradientUnits="userSpaceOnUse" gradientTransform="matrix(245.187,0,0,245.187,299.98452,258.94033)" spreadMethod="pad"/>
  <path d="m 260.25406,129.8393 43.41617,110.38834 45.55182,-110.38834 -88.96799,0 z m 314.1694,388.0856 -548.84692,0 0,-131.32274 157.30849,0 L 73.43024,129.92882 0,129.92882 0,0 l 600,0 0,129.92882 -75.18223,0 -107.40867,258.01611 157.01436,0 0,129.97997 z"/>
  <path d="m 303.06918,313.70903 87.216,-211.35172 -170.3909,0 83.1749,211.35172 z m -250.02344,100.36233 171.43953,0 -132.92126,-311.61174 -64.09481,0 0,-75.02878 545.04881,0 0,75.02878 -66.03862,0 -130.2741,312.9673 170.73618,0 0,74.97762 -493.89573,0 0,-76.33318 z" style="fill:#536e78"/>
  <path d="m 35.11659,35.11659 0,59.64449 56.44742,0 5.03857,0 2.00776,4.65493 132.92127,311.6629 4.55262,10.69099 -11.59896,0 -163.74099,0 0,60.9361 478.5626,0 0,-59.59333 -163.10159,0 -11.49665,0 4.39916,-10.63984 130.28689,-313.00567 1.94382,-4.70608 5.14088,0 58.35287,0 0,-59.64449 -529.71567,0 z m 260.80395,281.39307 -83.21326,-211.35172 -4.10504,-10.48638 11.29204,0 170.3909,0 11.49665,0 -4.39916,10.63984 -87.216,211.35172 -7.25095,17.63502 -6.99518,-17.78848 z" style="fill:url(#radialGradient2998)"/>
</svg>

<?xml version="1.0" encoding="UTF-8" standalone="no"?>
<svg
   version="1.1"
   width="600"
   height="517.92493"
   id="svg5"
   xmlns:xlink="http://www.w3.org/1999/xlink"
   xmlns="http://www.w3.org/2000/svg"
   xmlns:svg="http://www.w3.org/2000/svg">
  <defs
     id="defs5" />
  <radialGradient
     cx="0"
     cy="0"
     r="1"
     fx="0"
     fy="0"
     id="radialGradient586"
     gradientUnits="userSpaceOnUse"
     gradientTransform="matrix(19.172806,0,0,-19.172806,218.38379,259.30273)"
     spreadMethod="pad">
    <stop
       style="stop-color:#d9eaf3"
       offset="0"
       id="stop1" />
    <stop
       style="stop-color:#99aebc"
       offset="0.7"
       id="stop2" />
    <stop
       style="stop-color:#536e78"
       offset="1"
       id="stop3" />
  </radialGradient>
  <radialGradient
     cx="0"
     cy="0"
     r="1"
     fx="0"
     fy="0"
     id="radialGradient2995"
     xlink:href="#radialGradient586"
     gradientUnits="userSpaceOnUse"
     gradientTransform="matrix(19.172806,0,0,-19.172806,218.38379,259.30273)"
     spreadMethod="pad" />
  <radialGradient
     cx="0"
     cy="0"
     r="1"
     fx="0"
     fy="0"
     id="radialGradient2998"
     xlink:href="#radialGradient586"
     gradientUnits="userSpaceOnUse"
     gradientTransform="matrix(245.187,0,0,245.187,299.98452,258.94033)"
     spreadMethod="pad" />
  <path
     d="m 260.25406,129.8393 43.41617,110.38834 45.55182,-110.38834 z m 314.1694,388.0856 H 25.57654 V 386.60216 H 182.88503 L 73.43024,129.92882 H 0 V 0 H 600 V 129.92882 H 524.81777 L 417.4091,387.94493 h 157.01436 z"
     id="path3" />
  <path
     d="m 303.06918,313.70903 87.216,-211.35172 H 219.89428 Z M 53.04574,414.07136 H 224.48527 L 91.56401,102.45962 H 27.4692 V 27.43084 h 545.04881 v 75.02878 h -66.03862 l -130.2741,312.9673 h 170.73618 v 74.97762 H 53.04574 Z"
     style="fill:#536e78"
     id="path4" />
  <path
     d="m 35.11659,35.11659 v 59.64449 h 56.44742 5.03857 l 2.00776,4.65493 132.92127,311.6629 4.55262,10.69099 H 224.48527 60.74428 v 60.9361 h 478.5626 V 423.11267 H 376.20529 364.70864 l 4.39916,-10.63984 130.28689,-313.00567 1.94382,-4.70608 h 5.14088 58.35287 V 35.11659 Z M 295.92054,316.50966 212.70728,105.15794 208.60224,94.67156 h 11.29204 170.3909 11.49665 l -4.39916,10.63984 -87.216,211.35172 -7.25095,17.63502 z"
     style="fill:url(#radialGradient2998)"
     id="path5" />
</svg>
